public/assets/location-gray.svg

<svg width="17" height="21" viewBox="0 0 17 21" fill="none" xmlns="http://www.w3.org/2000/svg">
<path d="M8.15893 0.712402C6.0653 0.712402 4.05742 1.55526 2.577 3.05555C1.09658 4.55584 0.264893 6.59067 0.264893 8.7124C0.264893 14.1124 7.22152 20.2124 7.51754 20.4724C7.69628 20.6273 7.92374 20.7125 8.15893 20.7125C8.39413 20.7125 8.62159 20.6273 8.80032 20.4724C9.14569 20.2124 16.053 14.1124 16.053 8.7124C16.053 6.59067 15.2213 4.55584 13.7409 3.05555C12.2604 1.55526 10.2526 0.712402 8.15893 0.712402V0.712402ZM8.15893 18.3624C6.05714 16.3624 2.2384 12.0524 2.2384 8.7124C2.2384 7.1211 2.86217 5.59498 3.97249 4.46976C5.0828 3.34454 6.58871 2.7124 8.15893 2.7124C9.72915 2.7124 11.2351 3.34454 12.3454 4.46976C13.4557 5.59498 14.0795 7.1211 14.0795 8.7124C14.0795 12.0524 10.2607 16.3724 8.15893 18.3624ZM8.15893 4.7124C7.37829 4.7124 6.61517 4.947 5.96609 5.38652C5.317 5.82605 4.8111 6.45076 4.51236 7.18167C4.21362 7.91257 4.13546 8.71684 4.28775 9.49276C4.44005 10.2687 4.81597 10.9814 5.36797 11.5408C5.91997 12.1002 6.62326 12.4812 7.38891 12.6355C8.15455 12.7899 8.94817 12.7107 9.66939 12.4079C10.3906 12.1052 11.0071 11.5925 11.4408 10.9347C11.8745 10.2769 12.106 9.50353 12.106 8.7124C12.106 7.65154 11.6901 6.63412 10.9499 5.88398C10.2097 5.13383 9.20575 4.7124 8.15893 4.7124ZM8.15893 10.7124C7.76861 10.7124 7.38705 10.5951 7.06251 10.3753C6.73797 10.1556 6.48502 9.84322 6.33565 9.47777C6.18628 9.11232 6.14719 8.71018 6.22334 8.32222C6.29949 7.93426 6.48745 7.57789 6.76345 7.29819C7.03945 7.01848 7.3911 6.828 7.77392 6.75083C8.15674 6.67366 8.55355 6.71327 8.91416 6.86464C9.27477 7.01602 9.58299 7.27236 9.79985 7.60126C10.0167 7.93016 10.1324 8.31684 10.1324 8.7124C10.1324 9.24284 9.92452 9.75154 9.55441 10.1266C9.18431 10.5017 8.68234 10.7124 8.15893 10.7124Z" fill="#6B7280"/>
</svg>

<svg width="17" height="21" fill="none" xmlns="http://www.w3.org/2000/svg"><path d="M8.159.712a7.841 7.841 0 0 0-5.582 2.344A8.055 8.055 0 0 0 .265 8.712c0 5.4 6.957 11.5 7.253 11.76a.98.98 0 0 0 1.282 0c.346-.26 7.253-6.36 7.253-11.76a8.055 8.055 0 0 0-2.312-5.656A7.842 7.842 0 0 0 8.159.712Zm0 17.65c-2.102-2-5.92-6.31-5.92-9.65 0-1.59.623-3.117 1.733-4.242A5.881 5.881 0 0 1 8.16 2.712c1.57 0 3.076.633 4.186 1.758a6.041 6.041 0 0 1 1.734 4.242c0 3.34-3.818 7.66-5.92 9.65Zm0-13.65a3.91 3.91 0 0 0-2.193.675 3.989 3.989 0 0 0-1.454 1.795 4.05 4.05 0 0 0-.224 2.31 4.017 4.017 0 0 0 1.08 2.049 3.93 3.93 0 0 0 2.02 1.095c.767.154 1.56.075 2.281-.228a3.959 3.959 0 0 0 1.772-1.473 4.038 4.038 0 0 0-.491-5.051 3.92 3.92 0 0 0-2.791-1.172Zm0 6c-.39 0-.772-.117-1.096-.337a1.994 1.994 0 0 1-.727-.897 2.025 2.025 0 0 1 .427-2.18 1.95 1.95 0 0 1 2.15-.434c.362.152.67.408.887.737a2.02 2.02 0 0 1-.246 2.526 1.96 1.96 0 0 1-1.395.585Z" fill="#6B7280"/></svg>
